<?xml version="1.0" encoding="UTF-8"?>
<map version="1.10" tiledversion="1.10.2" orientation="orthogonal" renderorder="right-down" width="30" height="30" tilewidth="16" tileheight="16" infinite="0" nextlayerid="2" nextobjectid="1">
 <tileset firstgid="1" name="big_map" tilewidth="16" tileheight="16" tilecount="90" columns="10">
  <image source="big_map.png" width="160" height="144"/>
 </tileset>
 <layer id="1" name="图块层 1" width="30" height="30">
  <data encoding="csv">
18,18,18,18,7,68,78,78,72,55,61,61,61,54,56,68,78,78,78,78,78,78,78,78,78,78,78,78,77,83,
18,18,18,18,7,68,78,78,72,59,61,61,61,66,56,68,78,78,78,78,78,78,78,78,78,78,78,78,78,77,
18,18,18,18,20,68,78,75,76,59,61,61,66,56,73,74,78,78,78,78,78,78,78,78,78,78,78,78,78,78,
18,18,18,20,73,74,75,76,55,61,61,54,56,73,74,78,78,78,78,78,78,78,78,78,78,78,78,78,78,78,
18,18,7,73,74,78,72,56,59,61,61,66,56,68,78,78,78,78,78,78,78,78,78,78,78,78,78,78,78,78,
18,18,7,68,78,78,72,55,61,61,54,56,56,68,78,78,78,78,78,78,78,78,75,71,71,71,71,70,78,78,
18,18,7,69,70,75,76,59,61,61,66,56,73,74,78,78,78,78,78,78,78,75,76,56,56,56,56,69,71,71,
18,18,7,56,69,76,56,59,61,54,56,73,74,78,78,78,78,78,75,71,71,76,56,56,56,56,56,56,56,56,
18,18,18,10,56,56,55,61,61,54,56,68,78,78,78,78,78,75,76,56,56,56,56,56,56,56,56,56,56,56,
18,18,18,7,56,56,59,61,61,54,56,68,78,78,78,78,75,76,56,56,56,56,12,13,13,11,56,56,56,56,
18,18,18,7,56,55,61,61,61,66,56,69,70,78,78,75,76,56,56,56,56,12,14,14,14,14,11,56,56,56,
18,18,18,18,10,59,61,61,54,56,56,56,69,71,71,76,56,56,56,56,56,5,14,14,14,14,4,56,56,56,
18,18,18,18,20,58,61,61,54,56,56,56,56,56,56,56,56,56,56,56,56,5,14,14,14,14,4,56,56,56,
18,18,18,20,56,56,59,61,66,56,56,56,56,56,56,56,56,56,56,56,12,14,14,14,14,14,14,11,56,56,
18,18,20,56,56,56,59,54,56,56,56,56,56,56,56,56,56,56,56,56,5,14,14,14,14,14,14,14,13,13,
18,7,56,56,56,56,59,61,62,56,56,56,56,56,56,56,73,83,56,56,2,14,14,14,14,14,14,14,14,14,
18,20,56,56,56,56,58,61,54,56,56,56,56,56,56,56,68,77,83,56,56,5,14,14,14,14,14,14,14,14,
7,34,56,56,56,56,56,58,61,62,56,56,56,56,56,56,68,78,77,83,56,5,14,14,14,14,14,14,14,14,
7,34,56,56,56,56,56,56,58,64,63,62,56,56,56,56,68,78,78,77,83,5,14,14,14,14,14,14,14,14,
7,34,34,34,56,56,56,56,56,56,58,54,56,56,56,56,68,78,78,78,72,5,14,14,14,14,14,14,14,14,
7,34,34,34,56,56,56,56,56,56,56,58,62,56,56,73,74,78,78,78,72,2,14,14,14,14,14,14,14,14,
18,10,34,34,34,56,34,56,56,56,56,41,42,43,56,68,78,78,78,75,76,56,5,14,14,14,14,14,14,14,
18,18,10,34,34,34,34,56,56,56,56,51,52,53,56,68,78,78,75,76,34,56,2,3,14,14,14,14,14,14,
18,18,7,34,34,34,34,34,34,56,34,34,56,56,56,69,70,75,76,34,34,56,34,56,2,14,14,14,14,14,
18,18,7,34,34,34,34,34,34,34,34,34,56,56,56,56,69,76,34,34,34,34,34,56,56,2,14,14,14,14,
18,18,18,10,34,34,34,34,34,34,34,34,34,34,34,56,34,34,34,34,34,34,34,56,34,56,2,3,3,3,
18,18,18,18,10,34,34,34,34,34,34,34,34,34,34,34,34,34,34,34,34,34,34,34,34,8,9,9,9,9,
18,18,18,18,18,9,9,9,9,10,34,34,34,34,34,34,34,34,34,34,8,9,9,9,9,18,18,18,18,18,
18,18,18,18,18,18,18,18,18,18,10,34,34,34,34,34,34,34,34,8,18,18,18,18,18,18,18,18,18,18,
18,18,18,18,18,18,18,18,18,18,18,9,9,9,9,9,9,9,9,18,18,18,18,18,18,18,18,18,18,18
</data>
 </layer>
</map>
