<?xml version="1.0" encoding="UTF-8"?>
<map version="1.10" tiledversion="1.10.2" orientation="orthogonal" renderorder="right-down" width="48" height="24" tilewidth="32" tileheight="32" infinite="0" nextlayerid="2" nextobjectid="1">
 <tileset firstgid="1" name="Tiles" tilewidth="32" tileheight="32" tilecount="256" columns="16">
  <image source="level03_01.png" width="512" height="512"/>
 </tileset>
 <layer id="1" name="Layer1" width="48" height="24">
  <data encoding="csv">
1,1,1,1,1,1,1,1,1,1,1,1,1,1,1,1,1,1,1,1,1,1,1,1,44,85,68,69,42,15,16,18,16,15,38,1,1,1,44,85,68,68,42,44,85,68,68,42,
1,1,1,1,1,1,1,1,1,1,1,1,1,1,1,1,1,1,1,1,1,1,1,1,42,80,83,68,42,47,53,54,53,47,50,1,1,1,42,80,83,68,42,42,80,83,68,42,
1,1,1,1,1,1,1,1,1,1,1,1,1,1,1,1,1,1,1,1,1,1,1,1,42,68,80,83,42,48,55,56,55,48,1,1,1,1,42,68,80,83,42,42,68,80,83,42,
1,1,1,1,1,1,1,1,1,1,1,1,1,1,1,1,1,1,1,1,1,1,1,1,42,68,71,82,43,15,16,18,16,15,38,1,20,20,45,71,71,81,44,42,68,68,84,44,
1,1,1,1,1,1,1,1,1,1,1,1,1,1,1,1,1,1,1,1,1,1,1,1,42,68,77,76,42,47,53,54,53,47,50,1,1,1,42,68,77,78,45,45,68,77,78,42,
1,1,1,1,1,1,1,1,1,1,1,1,1,1,1,1,1,1,1,1,1,1,1,1,42,77,78,72,42,48,55,56,55,48,1,1,1,1,42,77,78,68,42,42,77,79,71,45,
1,1,1,1,1,1,1,1,1,1,1,1,1,1,1,1,1,1,1,1,1,1,1,1,43,79,71,73,45,52,65,66,67,48,1,1,1,1,44,85,68,68,42,44,85,68,68,42,
1,1,1,1,1,1,1,1,1,1,1,1,1,1,1,1,1,1,1,1,1,1,1,1,42,80,83,68,42,47,61,54,1,48,1,1,1,1,42,80,83,68,42,42,80,83,68,42,

1,1,1,1,1,1,1,1,1,1,1,1,1,1,1,1,1,1,1,1,1,1,1,1,42,68,80,83,42,48,62,56,1,1,1,1,1,1,1,1,1,1,1,1,1,1,1,1,
1,1,1,1,1,1,1,1,1,1,1,1,1,1,1,1,1,1,1,1,1,1,1,1,42,68,69,84,44,52,63,64,1,1,1,1,1,1,1,1,1,1,1,1,1,1,1,1,
1,1,1,1,1,1,1,1,1,1,1,1,1,1,1,1,1,1,1,1,1,1,1,1,42,68,77,78,42,47,53,61,1,1,1,1,1,1,1,1,1,1,1,1,1,1,1,1,
1,1,1,1,1,1,1,1,1,1,1,1,1,1,1,1,1,1,1,1,1,1,1,1,42,77,78,68,42,48,55,62,1,1,1,1,1,1,1,1,1,1,1,1,1,1,1,1,
1,1,1,1,1,1,1,1,1,1,1,1,1,1,1,1,1,1,1,1,1,1,1,1,43,79,70,71,45,52,59,63,1,1,1,1,1,1,1,1,1,1,1,1,1,1,1,1,
1,1,1,1,1,1,1,1,1,1,1,1,1,1,1,1,1,1,1,1,1,1,1,1,42,80,74,68,42,47,53,54,1,1,1,1,1,1,1,1,1,1,1,1,1,1,1,1,
1,1,1,1,1,1,1,1,1,1,1,1,1,1,1,1,1,1,1,1,1,1,1,1,42,68,75,83,42,48,55,56,1,1,1,1,1,1,1,1,1,1,1,1,1,1,1,1,
1,1,1,1,1,1,1,1,1,1,1,1,1,1,1,1,1,1,1,1,1,1,1,1,45,71,73,81,43,52,59,64,1,1,1,1,1,1,1,1,1,1,1,1,1,1,1,1,


  1,17,1,1,1,1,1,1,1,1,1,1,1,1,1,1,7,11,12,1,1,1,17,1,42,68,77,78,42,47,53,61,1,1,1,1,1,1,1,1,1,1,1,1,1,1,1,1,
33,33,1,1,1,1,8,6,9,9,6,8,1,1,7,1,7,11,12,11,1,33,33,33,42,77,78,68,42,48,55,62,1,1,1,1,1,1,1,1,1,1,1,1,1,1,1,1,
33,33,10,2,3,2,3,3,5,5,3,3,2,3,2,3,2,13,14,13,10,33,33,33,43,79,71,70,43,52,59,63,1,1,1,1,1,1,1,1,1,1,1,1,1,1,1,1,
33,33,4,4,4,4,4,4,4,4,4,4,4,4,4,4,4,4,4,4,4,33,33,33,42,80,83,72,42,47,53,53,1,1,1,1,1,1,1,1,1,1,1,1,1,1,1,1,
35,86,37,37,37,37,37,1,1,1,37,37,37,37,37,38,17,1,1,17,33,33,33,33,42,69,80,74,42,48,60,60,1,1,1,1,1,1,1,1,1,1,1,1,1,1,1,1,
1,46,47,53,54,53,47,37,37,37,47,53,54,53,47,50,35,35,35,35,35,35,35,34,39,40,40,41,44,48,60,60,1,1,1,1,1,1,1,1,1,1,1,1,1,1,1,1,
1,1,48,55,56,55,48,47,53,47,48,55,56,55,48,1,1,36,37,37,37,37,37,47,53,53,47,51,42,48,55,55,1,1,1,1,1,1,1,1,1,1,1,1,1,1,1,1,
1,1,49,58,57,58,49,48,55,48,49,58,57,58,49,1,1,46,47,53,54,53,47,48,55,55,48,68,42,48,67,67,1,1,1,1,1,1,1,1,1,1,1,1,1,1,1,1

</data>
 </layer>
</map>
