<?xml version="1.0" encoding="UTF-8"?>
<map version="1.10" tiledversion="1.10.2" orientation="orthogonal" renderorder="right-down" width="96" height="24" tilewidth="32" tileheight="32" infinite="0" nextlayerid="2" nextobjectid="1">
 <tileset firstgid="1" name="Tiles" tilewidth="32" tileheight="32" tilecount="256" columns="16">
  <image source="level05_01.png" width="512" height="512"/>
 </tileset>
 <layer id="1" name="Layer1" width="96" height="24">
  <data encoding="csv">
  1,1,1,1,1,1,1,1,1,1,1,1,1,1,1,1,4,4,30,31,6,1,18,1,18,1,18,7,2,2,2,2,2,2,2,2,8,6,18,1,18,1,18,1,4,30,31,7,8,4,7,2,8,30,31,6,1,1,1,1,1,1,1,1,1,1,1,1,1,1,1,1,1,1,1,1,1,1,1,1,1,1,1,1,1,1,1,1,1,1,1,1,1,1,1,1,
1,1,1,1,1,1,1,1,1,1,1,1,1,1,1,1,4,4,18,1,18,1,18,1,18,1,18,1,18,1,18,1,18,1,18,1,18,1,18,1,18,1,18,1,4,1,18,1,18,4,6,1,18,1,18,3,1,1,1,1,1,1,1,1,1,1,1,1,1,1,1,1,1,1,1,1,1,1,1,1,1,1,1,1,1,1,1,1,1,1,1,1,1,1,1,1,
1,1,1,1,1,1,1,1,1,1,1,1,1,1,1,1,4,5,33,34,33,17,18,1,18,1,18,1,18,1,18,1,18,1,18,1,18,1,18,1,18,1,18,1,5,1,18,1,18,5,18,1,19,1,18,4,1,1,1,1,1,1,1,1,1,1,1,1,1,1,1,1,1,1,1,1,1,1,1,1,1,1,1,1,1,1,1,1,1,1,1,1,1,1,1,1,
1,1,1,1,1,1,1,1,1,1,1,1,1,1,1,1,4,28,26,26,26,3,19,17,19,1,18,1,18,1,18,1,18,1,18,1,18,1,18,1,18,1,18,1,18,1,18,3,18,1,18,1,3,27,27,4,1,1,1,1,1,1,1,1,1,1,1,1,1,1,1,1,1,1,1,1,1,1,1,1,1,1,1,1,1,1,1,1,1,1,1,1,1,1,1,1,
1,1,1,1,1,1,1,1,1,1,1,1,1,1,1,1,4,32,32,32,6,5,10,9,6,1,18,1,18,1,18,1,18,1,18,1,18,1,18,3,18,3,18,1,18,1,19,4,18,1,18,3,5,32,32,4,1,1,1,1,1,1,1,1,1,1,1,1,1,1,1,1,1,1,1,1,1,1,1,1,1,1,1,1,1,1,1,1,1,1,1,1,1,1,1,1,
1,1,1,1,1,1,1,1,1,1,1,1,1,1,1,1,4,1,18,1,18,7,20,20,8,17,19,3,19,17,19,17,7,2,2,2,8,17,19,4,19,4,3,1,3,1,3,4,3,1,3,5,28,28,28,4,1,1,1,1,1,1,1,1,1,1,1,1,1,1,1,1,1,1,1,1,1,1,1,1,1,1,1,1,1,1,1,1,1,1,1,1,1,1,1,1,
1,1,1,1,1,1,1,1,1,1,1,1,1,1,1,1,4,1,18,1,18,1,18,3,6,10,9,4,9,10,9,10,3,9,10,9,3,10,9,4,6,5,5,17,5,17,5,4,5,17,5,28,26,26,3,4,1,1,1,1,1,1,1,1,1,1,1,1,1,1,1,1,1,1,1,1,1,1,1,1,1,1,1,1,1,1,1,1,1,1,1,1,1,1,1,1,
1,1,1,1,1,1,1,1,1,1,1,1,1,1,1,1,4,7,2,2,8,3,24,4,7,20,20,4,20,20,20,20,4,20,20,20,4,20,20,4,6,7,2,2,2,2,8,4,2,2,8,26,26,6,5,5,1,1,1,1,1,1,1,1,1,1,1,1,1,1,1,1,1,1,1,1,1,1,1,1,1,1,1,1,1,1,1,1,1,1,1,1,1,1,1,1,

1,1,1,1,1,1,1,1,1,1,1,1,1,1,1,1,5,7,8,26,26,4,18,4,1,1,1,1,1,1,1,1,1,1,1,1,1,1,1,1,1,1,1,1,1,1,1,1,3,26,26,26,7,2,2,2,2,2,2,2,2,2,8,1,1,1,1,1,1,1,1,1,1,1,1,1,1,1,1,1,1,1,1,1,1,1,1,1,1,1,48,51,52,48,53,47,
1,1,1,1,1,1,1,1,1,1,1,1,1,1,1,1,6,30,31,25,24,29,24,21,1,1,1,1,1,1,1,1,1,1,1,1,1,1,1,1,1,1,1,1,1,1,1,1,4,32,32,7,8,1,18,1,18,1,18,1,1,1,1,1,1,1,1,1,1,1,1,1,1,1,1,1,1,1,1,1,1,1,1,1,1,1,1,1,1,1,49,49,54,49,56,49,
1,1,1,1,1,1,1,1,1,1,1,1,1,1,1,1,3,1,18,1,18,1,18,22,1,1,1,1,1,1,1,1,1,1,1,1,1,1,1,1,1,1,1,1,1,1,1,1,4,1,18,1,18,1,18,1,18,1,18,1,1,1,1,1,1,1,1,1,1,36,37,39,40,41,42,1,1,1,1,1,1,1,1,36,37,39,40,41,42,1,1,1,55,58,57,58,
1,1,1,1,1,1,1,1,1,1,1,1,1,1,1,1,4,1,18,1,19,17,19,23,1,1,1,1,1,1,1,1,1,1,1,1,1,1,1,1,1,1,1,1,1,1,1,1,4,3,19,1,18,1,18,1,18,1,18,1,17,1,36,37,39,40,41,42,1,1,38,10,43,44,1,1,36,37,39,40,41,42,1,1,38,10,43,44,1,1,1,1,55,58,57,58,
1,1,1,1,1,1,1,1,1,1,1,1,1,1,1,1,4,25,24,6,30,31,6,3,1,1,1,1,1,1,1,1,1,1,1,1,1,1,1,1,1,1,1,1,1,1,1,1,4,4,3,17,18,1,18,1,19,17,19,17,6,1,1,38,10,43,44,1,1,25,25,45,46,25,25,1,1,38,10,43,44,1,1,25,25,45,46,25,25,1,50,50,59,60,61,51,
1,1,1,1,1,1,1,1,1,1,1,1,1,1,1,1,4,1,18,1,18,1,3,4,1,1,1,1,1,1,1,1,1,1,1,1,1,1,1,1,1,1,1,1,1,1,1,1,5,5,5,3,19,17,19,17,7,2,2,2,8,1,25,25,45,46,25,25,1,1,1,1,1,1,1,1,25,25,45,46,25,25,1,1,1,1,1,1,1,1,47,47,53,47,62,51,
1,1,1,1,1,1,1,1,1,1,1,1,1,1,1,1,5,1,18,1,18,1,4,4,1,1,1,1,1,1,1,1,1,1,1,1,1,1,1,1,1,1,1,1,1,1,1,1,10,9,10,4,10,9,10,9,3,9,10,9,3,35,35,35,35,35,35,35,35,35,35,35,35,35,35,35,35,35,35,35,35,35,35,35,35,35,35,35,35,35,47,47,53,48,63,51,
1,1,1,1,1,1,1,1,1,1,1,1,1,1,1,1,2,2,2,8,27,27,29,4,1,1,1,1,1,1,1,1,1,1,1,1,1,1,1,1,1,1,1,1,1,1,1,1,20,20,8,4,7,20,20,20,4,7,20,8,4,1,1,1,1,1,1,1,1,1,1,1,1,1,1,1,1,1,1,1,1,1,1,1,1,1,1,1,1,1,47,47,53,48,63,51,

1,1,1,1,14,11,14,12,13,1,5,9,10,9,10,6,18,1,18,4,26,26,26,5,1,1,1,1,1,1,1,1,1,1,1,1,1,1,1,1,1,1,1,1,1,1,1,1,1,1,1,1,1,1,1,1,1,1,1,1,1,1,1,1,1,1,1,1,1,1,1,1,1,1,1,1,1,1,1,1,1,1,1,1,1,1,1,1,1,1,1,1,1,1,1,1,
1,1,14,12,13,13,11,14,13,1,7,20,20,20,20,8,18,1,18,4,27,27,6,3,1,1,1,1,1,1,1,1,1,1,1,1,1,1,1,1,1,1,1,1,1,1,1,1,1,1,1,1,1,1,1,1,1,1,1,1,1,1,1,1,1,1,1,1,1,1,1,1,1,1,1,1,1,1,1,1,1,1,1,1,1,1,1,1,1,1,1,1,1,1,1,1,
1,1,11,12,13,14,12,11,13,1,18,1,18,1,18,1,18,1,18,4,26,26,28,4,1,1,1,1,1,1,1,1,1,1,1,1,1,1,1,1,1,1,1,1,1,1,1,1,1,1,1,1,1,1,1,1,1,1,1,1,1,1,1,1,1,1,1,1,1,1,1,1,1,1,1,1,1,1,1,1,1,1,1,1,1,1,1,1,1,1,1,1,1,1,1,1,
15,15,14,12,13,11,12,14,13,1,18,1,19,17,19,17,19,1,18,29,24,25,24,21,1,1,1,1,1,1,1,1,1,1,1,1,1,1,1,1,1,1,1,1,1,1,1,1,1,1,1,1,1,1,1,1,1,1,1,1,1,1,1,1,1,1,1,1,1,1,1,1,1,1,1,1,1,1,1,1,1,1,1,1,1,1,1,1,1,1,1,1,1,1,1,1,
17,17,16,17,17,16,17,17,17,17,19,1,6,9,10,9,6,1,18,1,18,1,18,22,1,1,1,1,1,1,1,1,1,1,1,1,1,1,1,1,1,1,1,1,1,1,1,1,1,1,1,1,1,1,1,1,1,1,1,1,1,1,1,1,1,1,1,1,1,1,1,1,1,1,1,1,1,1,1,1,1,1,1,1,1,1,1,1,1,1,1,1,1,1,1,1,
6,7,8,6,7,8,6,7,8,6,6,1,7,20,20,20,8,1,19,17,18,17,19,23,1,1,1,1,1,1,1,1,1,1,1,1,1,1,1,1,1,1,1,1,1,1,1,1,1,1,1,1,1,1,1,1,1,1,1,1,1,1,1,1,1,1,1,1,1,1,1,1,1,1,1,1,1,1,1,1,1,1,1,1,1,1,1,1,1,1,1,1,1,1,1,1,
3,1,1,3,1,1,3,1,1,3,18,1,3,1,18,1,6,17,7,8,19,6,10,9,1,1,1,1,1,1,1,1,1,1,1,1,1,1,1,1,1,1,1,1,1,1,1,1,1,1,1,1,1,1,1,1,1,1,1,1,1,1,1,1,1,1,1,1,1,1,1,1,1,1,1,1,1,1,1,1,1,1,1,1,1,1,1,1,1,1,1,1,1,1,1,1,
4,1,1,4,1,1,4,1,1,4,18,1,4,1,18,1,2,2,2,2,2,2,20,20,1,1,1,1,1,1,1,1,1,1,1,1,1,1,1,1,1,1,1,1,1,1,1,1,1,1,1,1,1,1,1,1,1,1,1,1,1,1,1,1,1,1,1,1,1,1,1,1,1,1,1,1,1,1,1,1,1,1,1,1,1,1,1,1,1,1,1,1,1,1,1,1
</data>
 </layer>
</map>
