<?xml version="1.0" encoding="UTF-8"?>
<map version="1.10" tiledversion="1.10.2" orientation="orthogonal" renderorder="right-down" width="8" height="8" tilewidth="32" tileheight="32" infinite="0" nextlayerid="2" nextobjectid="1">
 <tileset firstgid="1" name="Tiles" tilewidth="32" tileheight="32" tilecount="256" columns="16">
  <image source="level04_03.png" width="512" height="512"/>
 </tileset>
 <layer id="1" name="Layer1" width="8" height="8">
  <data encoding="csv">
1,2,1,1,1,1,2,1,
3,4,5,6,1,3,4,5,
15,9,8,7,12,15,9,8,
16,9,1,1,13,16,9,1,
17,9,10,11,14,17,9,10,
23,22,21,20,19,18,18,18,
24,25,26,25,24,25,26,25,
27,28,27,29,27,29,27,28
</data>
 </layer>
</map>
