<?xml version="1.0" encoding="UTF-8"?>
<map version="1.10" tiledversion="1.10.2" orientation="orthogonal" renderorder="right-down" width="40" height="16" tilewidth="32" tileheight="32" infinite="0" nextlayerid="2" nextobjectid="1">
 <tileset firstgid="1" name="Tiles" tilewidth="32" tileheight="32" tilecount="256" columns="16">
  <image source="level01_02.png" width="512" height="512"/>
 </tileset>
 <layer id="1" name="Layer1" width="40" height="16">
  <data encoding="csv">
0,0,0,0,0,0,0,0,0,0,0,0,0,0,0,0,0,0,0,0,0,0,0,0,1,1,13,1,1,1,13,1,1,58,54,54,54,54,1,1,
0,0,0,0,0,0,0,0,0,0,0,0,0,0,0,0,0,0,0,0,0,0,0,0,1,1,13,1,1,1,13,1,1,58,54,54,54,54,1,1,
0,0,0,0,0,0,0,0,0,0,0,0,0,0,0,0,0,0,0,0,0,0,0,0,1,1,13,1,1,1,13,1,1,58,54,60,60,60,1,1,
0,0,0,0,0,0,0,0,0,0,0,0,0,0,0,0,0,0,0,0,0,0,0,0,37,37,19,48,47,45,46,43,43,59,59,61,61,61,55,57,
0,0,0,0,0,0,0,0,0,0,0,0,0,0,0,0,0,0,0,0,0,0,0,0,38,1,13,1,1,1,13,42,53,53,53,53,53,53,53,53,
0,0,0,0,0,0,0,0,0,0,0,0,0,0,0,0,0,0,0,0,0,0,0,0,1,1,13,1,1,1,13,41,51,51,51,51,51,51,51,50,
0,0,0,0,0,0,0,0,0,0,0,0,0,0,0,0,0,0,0,0,0,0,0,0,14,14,18,14,40,1,13,41,49,49,49,49,49,49,49,30,
0,0,0,0,0,0,0,0,0,0,0,0,0,0,0,0,0,0,0,0,0,0,0,0,1,1,13,1,1,1,13,41,49,49,49,49,49,49,49,30,
1,1,1,1,1,1,1,1,1,1,1,1,1,1,1,1,1,1,1,1,1,1,1,1,15,37,19,15,15,15,19,30,49,49,49,49,49,49,49,30,
1,1,1,1,1,1,1,1,1,1,1,1,1,1,1,1,1,1,1,1,1,1,1,1,1,38,13,1,1,1,13,30,0,0,0,0,0,0,0,0,
1,1,1,1,1,1,1,1,1,1,1,1,1,1,1,1,1,1,1,1,1,1,1,1,1,1,13,1,1,1,13,30,0,0,0,0,0,0,0,0,
1,1,1,1,1,1,1,1,1,1,1,1,1,1,9,9,1,1,9,9,9,9,1,1,1,1,13,1,1,14,18,30,0,0,0,0,0,0,0,0,
1,1,1,1,1,1,1,1,1,1,1,1,9,9,11,11,9,1,11,11,11,11,9,9,9,1,13,1,1,1,13,30,0,0,0,0,0,0,0,0,
5,7,5,5,5,6,8,6,6,8,6,5,12,10,10,10,12,6,10,10,12,12,10,12,12,5,34,33,6,6,16,29,0,0,0,0,0,0,0,0,
3,3,3,3,3,4,4,4,4,4,4,3,3,4,4,4,3,4,4,4,3,3,4,3,3,3,3,3,4,4,4,4,0,0,0,0,0,0,0,0,
2,2,2,2,2,2,2,2,2,2,2,2,2,2,2,2,2,2,2,2,2,2,2,2,2,2,2,2,2,2,2,2,0,0,0,0,0,0,0,0
</data>
 </layer>
</map>
