<?xml version="1.0" encoding="UTF-8"?>
<map version="1.10" tiledversion="1.10.2" orientation="orthogonal" renderorder="right-down" width="56" height="24" tilewidth="32" tileheight="32" infinite="0" nextlayerid="2" nextobjectid="1">
 <tileset firstgid="1" name="Tiles" tilewidth="32" tileheight="32" tilecount="256" columns="16">
  <image source="level03_02.png" width="512" height="512"/>
 </tileset>
 <layer id="1" name="Layer1" width="56" height="24">
  <data encoding="csv">
  1,1,1,1,1,1,1,1,1,1,1,1,1,1,1,1,1,1,1,1,1,1,1,1,1,21,42,68,77,78,42,21,1,1,1,21,9,10,9,9,9,10,9,10,9,9,9,9,9,9,9,10,9,9,10,9,
1,1,1,1,1,1,1,1,1,1,1,1,1,1,1,1,1,1,1,1,1,1,1,1,22,20,42,77,78,68,42,23,34,35,1,21,10,9,13,9,9,9,9,9,10,9,10,9,9,10,9,9,9,10,9,9,
1,1,1,1,1,1,1,1,1,1,1,1,1,1,1,1,1,1,1,1,1,1,1,1,27,21,44,85,68,68,42,10,10,37,1,21,10,10,16,10,9,10,10,13,10,10,9,9,9,9,10,13,10,9,10,9,
1,1,1,1,1,1,1,1,1,1,1,1,1,1,1,1,1,1,1,1,1,1,1,1,1,21,6,81,83,68,42,15,15,37,1,21,15,15,14,10,10,13,15,16,10,10,10,10,10,13,15,16,10,13,10,10,
1,1,1,1,1,1,1,1,1,1,1,1,1,1,1,1,1,1,1,1,1,1,1,1,22,20,4,68,80,3,42,20,27,32,27,30,27,32,27,20,15,16,1,16,10,18,10,18,10,16,1,16,15,16,10,18,
1,1,1,1,1,1,1,1,1,1,1,1,1,1,1,1,1,1,1,1,1,1,1,1,27,21,4,68,68,84,43,21,1,1,1,1,1,1,1,21,1,14,1,14,15,14,15,14,15,14,1,14,1,14,15,14,
1,1,1,1,1,1,1,1,1,1,1,1,1,1,1,1,1,1,1,1,1,1,1,1,22,20,7,8,77,78,42,20,22,22,22,20,22,22,22,20,31,1,26,22,20,22,22,31,1,86,20,22,22,20,31,1,
1,1,1,1,1,1,1,1,1,1,1,1,1,1,1,1,1,1,1,1,1,1,1,1,1,21,6,2,79,71,45,21,1,1,1,21,1,1,1,21,1,1,1,1,21,1,1,1,1,1,21,1,1,21,1,1,

1,1,1,1,1,1,1,1,9,9,21,27,27,27,27,21,1,26,22,22,22,22,20,27,27,20,4,85,68,68,42,20,1,1,1,1,1,1,1,1,1,1,1,1,1,1,1,1,1,1,1,1,1,1,1,1,
1,1,1,1,1,1,1,1,11,9,20,22,22,22,22,20,1,1,29,27,27,27,21,27,27,30,5,81,83,68,42,21,1,1,1,1,1,1,1,1,1,1,1,1,1,1,1,1,1,1,1,1,1,1,1,1,
1,1,1,1,1,1,1,1,9,10,21,1,1,1,1,30,40,34,34,34,34,35,30,34,48,35,42,68,80,3,6,21,1,1,1,1,1,1,1,1,1,1,1,1,1,1,1,1,1,1,1,1,1,1,1,1,
1,1,1,1,1,1,1,1,10,9,21,1,1,1,1,1,36,9,9,10,9,37,36,9,12,37,42,68,68,84,4,21,1,1,1,1,1,1,1,1,1,1,1,1,1,1,1,1,1,1,1,1,1,1,1,1,
1,1,1,1,1,1,1,1,10,9,20,24,22,22,22,20,39,15,15,15,15,38,39,15,15,38,42,68,2,79,5,21,1,1,1,1,1,1,1,1,1,1,1,1,1,1,1,1,1,1,1,1,1,1,1,1,
1,1,1,1,1,1,1,1,9,10,21,46,34,35,1,21,20,31,1,26,22,22,20,1,26,20,45,2,78,68,42,20,1,1,1,1,1,1,1,1,1,1,1,1,1,1,1,1,1,1,1,1,1,1,1,1,
1,1,1,1,1,1,1,1,10,9,21,47,9,37,1,21,21,34,34,34,34,35,21,1,1,21,44,85,68,68,42,21,1,1,1,1,1,1,1,1,1,1,1,1,1,1,1,1,1,1,1,1,1,1,1,1,
1,1,1,1,1,1,1,1,10,10,21,47,10,37,1,21,21,10,10,10,10,37,21,1,1,21,42,80,83,68,42,21,1,1,1,1,1,1,1,1,1,1,1,1,1,1,1,1,1,1,1,1,1,1,1,1,

44,85,68,68,42,9,9,20,22,22,20,22,22,22,24,20,1,1,1,1,1,1,1,1,1,1,1,1,1,1,1,1,1,1,1,1,1,1,1,1,1,1,1,1,1,1,1,1,1,1,1,1,1,1,1,1,
42,80,83,68,42,10,9,21,27,27,21,27,27,28,41,21,1,1,1,1,1,1,1,1,1,1,1,1,1,1,1,1,1,1,1,1,1,1,1,1,1,1,1,1,1,1,1,1,1,1,1,1,1,1,1,1,
42,68,80,83,42,9,10,23,34,35,25,34,34,35,41,21,1,1,1,1,1,1,1,1,1,1,1,1,1,1,1,1,1,1,1,1,1,1,1,1,1,1,1,1,1,1,1,1,1,1,1,1,1,1,1,1,
42,68,68,84,44,10,10,10,9,37,36,9,9,37,41,21,1,1,1,1,1,1,1,1,1,1,1,1,1,1,1,1,1,1,1,1,1,1,1,1,1,1,1,1,1,1,1,1,1,1,1,1,1,1,1,1,
45,71,2,79,42,13,10,13,15,38,36,10,9,37,41,21,1,1,1,1,1,1,1,1,1,1,1,1,1,1,1,1,1,1,1,1,1,1,1,1,1,1,1,1,1,1,1,1,1,1,1,1,1,1,1,1,
42,77,78,68,42,14,15,14,26,22,20,22,22,22,22,20,1,1,1,1,1,1,1,1,1,1,1,1,1,1,1,1,1,1,1,1,1,1,1,1,1,1,1,1,1,1,1,1,1,1,1,1,1,1,1,1,
44,85,68,68,42,20,22,20,34,35,21,34,34,35,29,21,1,1,1,1,1,1,1,1,1,1,1,1,1,1,1,1,1,1,1,1,1,1,1,1,1,1,1,1,1,1,1,1,1,1,1,1,1,1,1,1,
42,80,83,68,42,21,1,21,10,37,21,10,10,37,1,21,1,1,1,1,1,1,1,1,1,1,1,1,1,1,1,1,1,1,1,1,1,1,1,1,1,1,1,1,1,1,1,1,1,1,1,1,1,1,1,1
</data>
 </layer>
</map>
