<?xml version="1.0" encoding="UTF-8"?>
<map version="1.10" tiledversion="1.11.2" orientation="orthogonal" renderorder="right-down" width="64" height="16" tilewidth="32" tileheight="32" infinite="0" backgroundcolor="#000000" nextlayerid="11" nextobjectid="46">
 <tileset firstgid="1" name="Tiles" tilewidth="32" tileheight="32" tilecount="256" columns="16">
  <image source="level01_01-test.png" width="512" height="512"/>
 </tileset>
 <layer id="8" name="ani3" width="64" height="16" visible="0">
  <data encoding="csv">
227,227,227,227,227,227,227,227,227,227,227,227,227,227,227,227,227,227,227,227,227,227,227,227,227,227,227,227,227,227,227,227,227,227,227,227,227,227,227,227,227,227,227,227,227,227,227,227,227,227,227,227,227,227,227,227,227,227,227,227,227,227,227,227,
227,227,227,227,227,227,227,227,227,227,227,227,227,227,227,227,227,227,227,227,227,227,227,227,227,227,227,227,227,227,227,227,227,227,227,227,227,227,227,227,227,227,227,227,227,227,227,227,227,227,227,227,227,227,227,227,227,227,227,227,227,227,227,227,
227,227,227,227,227,227,227,227,227,227,227,227,227,227,227,227,227,227,227,227,227,227,227,227,227,227,227,227,227,227,227,227,227,227,227,227,227,227,227,227,227,227,227,227,227,227,227,227,227,227,227,227,227,227,227,227,227,227,227,227,227,227,227,227,
227,227,227,227,227,227,227,227,227,227,227,227,227,227,227,227,227,227,227,227,227,227,227,227,227,227,227,227,227,227,227,227,227,227,227,227,227,227,227,227,227,227,227,227,227,227,227,227,227,227,227,227,227,227,227,227,227,227,227,227,227,227,227,227,
227,227,227,227,227,227,227,227,227,227,227,227,227,227,227,227,227,227,227,227,227,227,227,227,227,227,227,227,227,227,227,227,227,227,227,227,227,227,227,227,227,227,227,227,227,227,227,227,227,227,227,227,227,227,227,227,227,227,227,227,227,227,227,227,
227,227,227,227,227,227,227,227,227,227,227,227,227,227,227,227,227,227,227,227,227,227,227,227,227,227,227,227,227,227,227,227,227,227,227,227,227,227,227,227,227,227,227,227,227,227,227,227,227,227,227,227,227,227,227,227,227,227,227,227,227,227,227,227,
227,227,227,227,227,227,227,227,227,227,227,227,227,227,227,227,227,227,227,227,227,227,124,124,121,124,227,0,0,0,0,0,227,227,227,227,227,227,227,227,227,227,119,120,119,227,227,227,227,227,227,227,227,227,227,227,227,227,227,227,227,227,227,227,
227,227,227,227,227,227,227,227,227,227,227,227,227,227,227,227,227,227,227,227,227,227,227,227,227,227,0,0,0,0,0,0,227,227,227,227,227,227,227,227,227,227,227,227,227,227,227,227,227,227,227,227,227,227,227,227,227,227,227,227,227,227,227,227,
227,197,198,227,227,227,227,227,227,227,227,227,227,227,227,227,227,227,124,121,124,124,0,0,0,0,0,0,0,0,0,0,227,227,227,120,119,119,119,119,119,119,119,227,227,227,227,227,227,227,227,227,227,227,227,227,227,227,227,227,227,227,227,227,
227,213,214,163,163,163,163,163,227,227,227,227,166,166,166,227,227,227,227,227,227,227,0,0,0,0,0,0,0,0,0,0,227,227,227,227,227,227,227,227,227,227,227,0,0,0,0,0,0,0,227,227,227,227,227,227,227,227,227,227,227,227,232,233,
227,0,0,0,0,0,0,0,0,0,0,0,227,227,227,163,163,163,227,185,166,0,0,0,0,0,0,0,0,0,0,0,227,166,166,0,0,163,163,0,163,163,0,0,0,0,0,0,0,0,0,163,163,163,0,0,0,0,0,0,0,0,0,227,
227,0,0,0,0,0,0,0,0,0,0,0,0,0,0,0,0,0,0,0,0,0,0,0,0,0,0,0,0,0,0,0,0,0,0,0,0,0,0,0,0,0,0,0,0,0,0,0,0,0,0,0,0,0,0,0,0,0,0,0,0,227,227,227,
227,227,0,0,0,0,0,0,0,0,0,0,0,0,0,0,0,0,0,0,0,0,0,0,0,0,0,0,0,0,0,0,0,0,0,0,0,0,0,0,0,0,0,0,0,0,0,0,0,0,0,0,0,0,0,0,0,0,0,227,227,227,227,227,
227,227,0,0,0,0,0,0,0,0,0,0,0,0,0,0,0,0,0,0,0,0,0,0,0,0,0,0,0,0,0,0,0,0,0,0,0,0,0,0,0,0,0,0,0,0,0,0,0,0,0,0,0,0,0,0,0,0,0,227,227,227,227,227,
227,227,227,0,0,0,0,0,0,0,0,0,0,0,0,0,0,0,0,0,0,0,0,0,0,0,0,0,0,0,0,0,0,0,0,0,0,0,0,0,0,0,0,0,0,0,0,0,0,0,0,0,0,0,0,0,0,227,227,227,227,227,227,227,
227,227,227,0,0,0,0,0,0,0,0,0,0,0,0,0,0,0,0,0,0,0,0,0,0,0,0,0,0,0,0,0,0,0,0,0,0,0,0,0,0,0,0,0,0,0,0,0,0,0,0,0,0,0,0,0,0,227,227,227,227,227,227,227
</data>
 </layer>
 <layer id="7" name="ani2" width="64" height="16" visible="0">
  <data encoding="csv">
226,226,226,226,226,226,226,226,226,226,226,226,226,226,226,226,226,226,226,226,226,226,226,226,226,226,226,226,226,226,226,226,226,226,226,226,226,226,226,226,226,226,226,226,226,226,226,226,226,226,226,226,226,226,226,226,226,226,226,226,226,226,226,226,
226,226,226,226,226,226,226,226,226,226,226,226,226,226,226,226,226,226,226,226,226,226,226,226,226,226,226,226,226,226,226,226,226,226,226,226,226,226,226,226,226,226,226,226,226,226,226,226,226,226,226,226,226,226,226,226,226,226,226,226,226,226,226,226,
226,226,226,226,226,226,226,226,226,226,226,226,226,226,226,226,226,226,226,226,226,226,226,226,226,226,226,226,226,226,226,226,226,226,226,226,226,226,226,226,226,226,226,226,226,226,226,226,226,226,226,226,226,226,226,226,226,226,226,226,226,226,226,226,
226,226,226,226,226,226,226,226,226,226,226,226,226,226,226,226,226,226,226,226,226,226,226,226,226,226,226,226,226,226,226,226,226,226,226,226,226,226,226,226,226,226,226,226,226,226,226,226,226,226,226,226,226,226,226,226,226,226,226,226,226,226,226,226,
226,226,226,226,226,226,226,226,226,226,226,226,226,226,226,226,226,226,226,226,226,226,226,226,226,226,226,226,226,226,226,226,226,226,226,226,226,226,226,226,226,226,226,226,226,226,226,226,226,226,226,226,226,226,226,226,226,226,226,226,226,226,226,226,
226,226,226,226,226,226,226,226,226,226,226,226,226,226,226,226,226,226,226,226,226,226,226,226,226,226,226,226,226,226,226,226,226,226,226,226,226,226,226,226,226,226,226,226,226,226,226,226,226,226,226,226,226,226,226,226,226,226,226,226,226,226,226,226,
226,226,226,226,226,226,226,226,226,226,226,226,226,226,226,226,226,226,226,226,226,226,123,123,118,123,226,0,0,0,0,0,226,226,226,226,226,226,226,226,226,226,116,117,116,226,226,226,226,226,226,226,226,226,226,226,226,226,226,226,226,226,226,226,
226,226,226,226,226,226,226,226,226,226,226,226,226,226,226,226,226,226,226,226,226,226,226,226,226,226,0,0,0,0,0,0,226,226,226,226,226,226,226,226,226,226,226,226,226,226,226,226,226,226,226,226,226,226,226,226,226,226,226,226,226,226,226,226,
226,195,196,226,226,226,226,226,226,226,226,226,226,226,226,226,226,226,123,118,123,123,0,0,0,0,0,0,0,0,0,0,226,226,226,117,116,116,116,116,116,116,116,226,226,226,226,226,226,226,226,226,226,226,226,226,226,226,226,226,226,226,226,226,
226,211,212,162,162,162,162,162,226,226,226,226,164,164,164,226,226,226,226,226,226,226,0,0,0,0,0,0,0,0,0,0,226,226,226,226,226,226,226,226,226,226,226,226,226,226,226,0,0,0,226,226,226,226,226,226,226,226,226,226,226,226,230,231,
226,0,0,0,0,0,0,0,0,0,0,0,0,0,0,162,162,162,226,183,164,0,0,0,0,0,0,0,0,0,0,0,226,164,164,226,226,162,162,226,162,162,226,226,0,0,0,0,0,0,226,162,162,162,0,0,0,0,0,0,0,0,0,226,
226,0,0,0,0,0,0,0,0,0,0,0,0,0,0,0,0,0,0,0,0,0,0,0,0,0,0,0,0,0,0,0,0,0,0,0,0,0,0,0,0,0,0,0,0,0,0,0,0,0,0,0,0,0,0,0,0,0,0,0,0,0,226,226,
226,226,0,0,0,0,0,0,0,0,0,0,0,0,0,0,0,0,0,0,0,0,0,0,0,0,0,0,0,0,0,0,0,0,0,0,0,0,0,0,0,0,0,0,0,0,0,0,0,0,0,0,0,0,0,0,0,0,0,0,226,226,226,226,
226,226,0,0,0,0,0,0,0,0,0,0,0,0,0,0,0,0,0,0,0,0,0,0,0,0,0,0,0,0,0,0,0,0,0,0,0,0,0,0,0,0,0,0,0,0,0,0,0,0,0,0,0,0,0,0,0,0,0,226,226,226,226,226,
226,226,226,0,0,0,0,0,0,0,0,0,0,0,0,0,0,0,0,0,0,0,0,0,0,0,0,0,0,0,0,0,0,0,0,0,0,0,0,0,0,0,0,0,0,0,0,0,0,0,0,0,0,0,0,0,0,0,226,226,226,226,226,226,
226,226,226,0,0,0,0,0,0,0,0,0,0,0,0,0,0,0,0,0,0,0,0,0,0,0,0,0,0,0,0,0,0,0,0,0,0,0,0,0,0,0,0,0,0,0,0,0,0,0,0,0,0,0,0,0,0,226,226,226,226,226,226,226
</data>
 </layer>
 <layer id="6" name="ani1" width="64" height="16" visible="0">
  <data encoding="csv">
225,225,225,225,225,225,225,225,225,225,225,225,225,225,225,225,225,225,225,225,225,225,225,225,225,225,225,225,225,225,225,225,225,225,225,225,225,225,225,225,225,225,225,225,225,225,225,225,225,225,225,225,225,225,225,225,225,225,225,225,225,225,225,225,
225,225,225,225,225,225,225,225,225,225,225,225,225,225,225,225,225,225,225,225,225,225,225,225,225,225,225,225,225,225,225,225,225,225,225,225,225,225,225,225,225,225,225,225,225,225,225,225,225,225,225,225,225,225,225,225,225,225,225,225,225,225,225,225,
225,225,225,225,225,225,225,225,225,225,225,225,225,225,225,225,225,225,225,225,225,225,225,225,225,225,225,225,225,225,225,225,225,225,225,225,225,225,225,225,225,225,225,225,225,225,225,225,225,225,225,225,225,225,225,225,225,225,225,225,225,225,225,225,
225,225,225,225,225,225,225,225,225,225,225,225,225,225,225,225,225,225,225,225,225,225,225,225,225,225,225,225,225,225,225,225,225,225,225,225,225,225,225,225,225,225,225,225,225,225,225,225,225,225,225,225,225,225,225,225,225,225,225,225,225,225,225,225,
225,225,225,225,225,225,225,225,225,225,225,225,225,225,225,225,225,225,225,225,225,225,225,225,225,225,225,225,225,225,225,225,225,225,225,225,225,225,225,225,225,225,225,225,225,225,225,225,225,225,225,225,225,225,225,225,225,225,225,225,225,225,225,225,
225,225,225,225,225,225,225,225,225,225,225,225,225,225,225,225,225,225,225,225,225,225,225,225,225,225,225,225,225,225,225,225,225,225,225,225,225,225,225,225,225,225,225,225,225,225,225,225,225,225,225,225,225,225,225,225,225,225,225,225,225,225,225,225,
225,225,225,225,225,225,225,225,225,225,225,225,225,225,225,225,225,225,225,225,225,225,122,122,115,122,225,225,0,0,0,0,225,225,225,225,225,225,225,225,225,225,113,114,113,225,225,225,225,225,225,225,225,225,225,225,225,225,225,225,225,225,225,225,
225,225,225,225,225,225,225,225,225,225,225,225,225,225,225,225,225,225,225,225,225,225,225,225,225,225,225,225,0,225,0,225,225,225,225,225,225,225,225,225,225,225,225,225,225,225,225,225,225,225,225,225,225,225,225,225,225,225,225,225,225,225,225,225,
225,193,194,225,225,225,225,225,225,225,225,225,225,225,225,225,225,225,122,115,122,122,0,0,0,0,0,0,0,0,0,0,225,225,225,114,113,113,113,113,113,113,113,225,225,225,225,225,225,225,225,225,225,225,225,225,225,225,225,225,225,225,225,225,
225,209,210,161,161,161,161,161,225,225,225,225,165,165,165,225,225,225,225,225,225,225,0,225,0,0,0,0,0,0,0,0,225,225,225,225,225,225,225,225,225,225,225,0,0,0,0,0,0,0,225,225,225,225,225,225,225,225,225,225,225,225,228,229,
225,0,0,0,0,0,0,0,0,0,0,0,0,0,0,161,161,161,225,185,165,0,0,0,0,0,0,0,0,0,0,0,225,165,165,225,225,161,161,0,161,161,0,0,0,0,0,0,0,0,0,161,161,161,0,0,0,0,0,0,0,0,0,225,
225,0,0,0,0,0,0,0,0,0,0,0,0,0,0,0,0,0,0,0,0,0,0,0,0,0,0,0,0,0,0,0,0,0,0,0,0,0,0,0,0,0,0,0,0,0,0,0,0,0,0,0,0,0,0,0,0,0,0,0,0,0,225,225,
225,225,0,0,0,0,0,0,0,0,0,0,0,0,0,0,0,0,0,0,0,0,0,0,0,0,0,0,0,0,0,0,0,0,0,0,0,0,0,0,0,0,0,0,0,0,0,0,0,0,0,0,0,0,0,0,0,0,0,225,225,225,225,225,
225,225,0,0,0,0,0,0,0,0,0,0,0,0,0,0,0,0,0,0,0,0,0,0,0,0,0,0,0,0,0,0,0,0,0,0,0,0,0,0,0,0,0,0,0,0,0,0,0,0,0,0,0,0,0,0,0,0,0,225,225,225,225,225,
225,225,225,0,0,0,0,0,0,0,0,0,0,0,0,0,0,0,0,0,0,0,0,0,0,0,0,0,0,0,0,0,0,0,0,0,0,0,0,0,0,0,0,0,0,0,0,0,0,0,0,0,0,0,0,0,0,0,225,225,225,225,225,225,
225,225,225,0,0,0,0,0,0,0,0,0,0,0,0,0,0,0,0,0,0,0,0,0,0,0,0,0,0,0,0,0,0,0,0,0,0,0,0,0,0,0,0,0,0,0,0,0,0,0,0,0,0,0,0,0,0,225,225,225,225,225,225,225
</data>
 </layer>
 <layer id="1" name="Layer1" width="64" height="16" visible="0" locked="1">
  <data encoding="csv">
0,0,0,0,0,0,0,0,0,0,0,0,0,0,0,0,0,7,0,0,0,0,0,0,0,0,0,0,0,0,0,0,0,0,0,0,0,0,0,0,0,0,0,0,0,0,0,0,0,0,0,0,0,0,0,0,0,0,0,0,0,0,0,0,
0,0,0,0,0,0,0,0,0,0,0,0,0,0,0,0,0,7,0,0,0,0,0,0,0,0,0,0,0,0,0,0,0,0,0,0,0,0,0,0,0,0,0,0,0,0,0,0,0,0,0,0,0,0,0,0,0,0,0,0,0,0,0,0,
0,0,0,0,0,0,0,0,0,0,0,0,0,0,0,0,0,7,0,0,0,0,0,0,0,0,0,0,0,0,0,0,0,0,0,0,0,0,0,0,0,0,0,0,0,0,0,0,0,0,0,0,0,0,0,0,0,0,0,0,0,0,0,0,
0,0,0,0,0,0,0,0,0,0,0,0,0,0,0,0,0,7,7,11,7,7,7,7,11,0,0,0,0,0,0,0,0,0,0,11,0,0,0,0,0,0,0,11,7,0,0,0,0,0,0,0,0,0,0,0,0,0,0,0,0,0,0,0,
0,0,0,0,0,0,0,0,0,0,0,0,0,0,0,0,0,7,7,11,7,7,7,14,13,0,0,0,0,0,0,0,0,0,0,11,0,0,0,0,0,0,0,11,7,0,0,0,0,0,0,0,0,0,0,0,0,0,0,0,0,0,0,0,
0,0,0,0,0,0,0,0,0,0,0,0,0,0,0,0,0,7,7,11,7,7,7,7,11,0,0,0,0,0,0,0,0,0,0,11,7,7,7,0,0,0,0,11,7,0,0,0,0,0,0,0,0,0,0,0,0,0,0,0,0,0,0,0,
0,0,0,0,0,0,0,0,0,0,0,0,0,0,0,0,0,12,12,13,12,7,0,0,0,0,43,22,21,21,21,21,17,7,14,13,12,12,16,7,7,7,0,0,0,0,0,0,0,0,0,0,0,0,0,0,0,0,0,0,0,0,0,0,
0,0,0,0,0,0,0,0,0,0,0,0,0,0,0,0,0,0,0,11,0,0,0,0,11,7,31,41,29,44,44,44,0,0,0,11,0,0,0,0,0,0,0,11,7,0,0,0,0,0,0,0,0,0,0,0,0,0,0,0,0,0,0,0,
0,0,0,0,0,0,0,0,0,0,0,0,0,0,0,0,0,0,0,0,0,0,22,22,22,22,70,71,31,30,31,30,0,0,0,0,0,0,0,0,0,0,0,67,43,0,0,0,0,0,0,0,0,0,0,0,0,0,0,0,0,0,0,0,
64,0,0,0,0,0,0,0,27,27,27,27,0,0,0,7,0,0,7,11,0,0,21,21,21,21,69,68,65,66,65,66,0,0,0,11,7,7,7,7,7,7,7,66,65,22,22,22,22,22,0,0,0,0,0,0,0,0,0,0,0,0,0,0,
63,3,3,3,3,4,4,4,4,4,4,4,10,10,8,0,0,0,26,0,0,28,29,33,33,36,35,35,35,36,39,33,26,0,0,32,25,0,0,25,0,0,25,33,36,35,35,35,36,39,25,0,0,0,8,8,8,8,8,8,8,58,10,61,
50,51,5,1,1,5,1,1,1,1,5,1,1,1,5,4,4,4,9,9,9,9,9,9,9,38,37,37,37,37,40,9,9,9,9,3,4,4,4,4,4,4,4,8,38,37,37,37,37,40,5,4,4,4,1,1,6,1,1,6,52,56,55,62,
7,49,3,1,1,3,1,1,1,1,3,1,1,1,3,1,1,5,3,3,72,3,3,3,3,6,1,1,6,1,1,3,3,3,3,6,1,1,1,6,1,1,6,1,1,6,1,1,1,1,3,1,1,1,1,1,1,52,52,53,55,57,0,0,
0,50,51,1,1,1,1,1,1,1,1,1,1,1,1,1,1,3,1,1,3,1,1,1,1,1,1,1,1,1,1,1,1,1,1,1,1,1,1,1,1,1,1,1,1,1,1,1,1,1,1,1,1,1,1,1,1,2,53,54,0,0,0,0,
0,7,49,2,2,2,2,2,2,2,2,2,2,2,2,2,2,2,2,2,2,2,2,2,2,2,2,2,2,2,2,2,2,2,2,2,2,2,2,2,2,2,2,2,2,2,2,2,2,2,2,2,2,2,2,2,2,53,54,7,0,0,0,0,
0,0,50,2,2,2,2,2,2,2,2,2,2,2,2,2,2,2,2,2,2,2,2,2,2,2,2,2,2,2,2,2,2,2,2,2,2,2,2,2,2,2,2,2,2,2,2,2,2,2,2,2,2,2,2,2,2,54,0,0,0,0,0,0
</data>
 </layer>
 <objectgroup id="10" name="collision" visible="0">
  <object id="15" x="0" y="0" width="50" height="50"/>
  <object id="44" name="2" x="17" y="305" width="365" height="38"/>
  <object id="17" name="2" x="1" y="102" width="14" height="205"/>
  <object id="18" type="2" x="383" y="320" width="96" height="32"/>
  <object id="20" x="479" y="336" width="95" height="31"/>
  <object id="21" x="576" y="352" width="97" height="39"/>
  <object id="22" x="672" y="320" width="63" height="33"/>
  <object id="23" x="704" y="255" width="127" height="63"/>
  <object id="24" name="1" x="575" y="266" width="128" height="5"/>
  <object id="25" name="1" x="704" y="200" width="125" height="6"/>
  <object id="26" x="833" y="209" width="31" height="44"/>
  <object id="28" x="864" y="191" width="174" height="33"/>
  <object id="29" x="1009" y="226" width="13" height="128"/>
  <object id="30" x="1024" y="352" width="95" height="20"/>
  <object id="31" x="1120" y="335" width="257" height="27"/>
  <object id="32" name="1" x="1118" y="280" width="256" height="7"/>
  <object id="33" name="1" x="1344" y="217" width="94" height="6"/>
  <object id="34" x="1376" y="272" width="63" height="44"/>
  <object id="35" x="1441" y="288" width="157" height="55"/>
  <object id="36" x="1599" y="336" width="129" height="9"/>
  <object id="37" x="1727" y="319" width="303" height="19"/>
  <object id="39" x="2032" y="148" width="12" height="169"/>
 </objectgroup>
</map>
