<?xml version="1.0" encoding="UTF-8"?>
<map version="1.10" tiledversion="1.10.2" orientation="orthogonal" renderorder="right-down" width="40" height="24" tilewidth="32" tileheight="32" infinite="0" nextlayerid="2" nextobjectid="1">
 <tileset firstgid="1" name="Tiles" tilewidth="32" tileheight="32" tilecount="256" columns="16">
  <image source="level02_02.png" width="512" height="512"/>
 </tileset>
 <layer id="1" name="Layer1" width="40" height="24">
  <data encoding="csv">
  1,1,1,1,1,1,1,1,1,1,1,1,1,1,1,1,1,1,1,1,1,1,1,1,124,126,128,1,1,129,123,124,124,126,128,1,129,126,123,124,
1,1,1,1,1,1,1,1,1,1,1,1,1,1,1,1,1,1,1,1,1,1,1,1,124,125,137,139,139,138,123,124,124,125,128,1,129,125,123,124,
1,1,1,1,1,1,1,1,1,1,1,1,1,1,1,1,1,1,1,1,1,1,1,1,124,125,128,1,1,129,123,124,124,126,128,1,129,126,123,124,
1,1,1,1,1,1,1,1,1,1,1,1,1,1,1,1,1,1,1,1,1,1,1,1,124,125,128,1,1,129,123,124,124,126,128,1,129,126,123,124,
1,1,1,1,1,1,1,1,1,1,1,1,1,1,1,1,1,1,1,1,1,1,1,1,124,126,128,1,145,144,143,77,77,146,128,1,129,126,123,124,
1,1,1,1,1,1,1,1,1,1,1,1,1,1,1,1,1,1,1,1,1,1,1,1,124,125,137,139,139,138,141,31,31,147,128,1,129,125,123,124,
1,1,1,1,1,1,1,1,1,1,1,1,1,1,1,1,1,1,1,1,1,1,1,1,124,126,128,1,1,129,141,31,31,148,149,16,150,85,85,85,
1,1,1,1,1,1,1,1,1,1,1,1,1,1,1,1,1,1,1,1,1,1,1,1,124,125,128,1,1,129,141,31,31,147,128,1,154,31,31,31,

  1,1,1,1,1,1,1,1,1,1,1,1,1,1,1,1,1,1,1,1,1,1,1,1,124,126,128,1,1,129,141,31,1,1,1,1,1,1,1,1,
1,1,1,1,1,1,1,1,1,1,1,1,1,1,1,1,1,1,1,1,1,1,1,1,124,126,137,139,139,138,142,140,1,1,1,1,1,1,1,1,
1,1,1,1,1,1,1,1,1,1,1,1,1,1,1,1,1,1,1,1,1,1,1,1,124,125,128,1,1,129,123,124,1,1,1,1,1,1,1,1,
1,1,1,1,1,1,1,1,1,1,1,1,1,1,1,1,1,1,1,1,1,1,1,1,124,125,128,1,1,129,123,124,1,1,1,1,1,1,1,1,
1,1,1,1,1,1,1,1,1,1,1,1,1,1,1,1,1,1,1,1,1,1,1,1,124,126,128,1,1,129,123,124,1,1,1,1,1,1,1,1,
1,1,1,1,1,1,1,1,1,1,1,1,1,1,1,1,1,1,1,1,1,1,1,1,124,125,137,139,139,138,123,124,1,1,1,1,1,1,1,1,
1,1,1,1,1,1,1,1,1,1,1,1,1,1,1,1,1,1,1,1,1,1,1,1,124,126,128,1,1,129,123,124,1,1,1,1,1,1,1,1,
1,1,1,1,1,1,1,1,1,1,1,1,1,1,1,1,1,1,1,1,1,1,1,1,124,125,128,1,1,129,123,124,1,1,1,1,1,1,1,1,

  
 123,124,125,126,123,124,123,126,123,128,1,129,123,126,124,123,124,123,128,129,123,124,123,126,124,126,128,1,1,129,123,124,1,1,1,1,1,1,1,1,
123,124,126,125,123,124,123,125,123,128,1,129,123,126,124,123,124,123,128,129,123,124,123,125,124,126,137,139,139,138,123,124,1,1,1,1,1,1,1,1,
123,124,126,126,123,124,123,126,123,128,1,129,123,126,124,123,124,123,128,129,123,124,123,126,124,125,128,1,1,129,123,124,1,1,1,1,1,1,1,1,
113,113,113,113,113,113,113,113,113,113,113,113,113,113,113,113,113,130,131,131,131,131,132,113,113,126,128,1,1,129,123,124,1,1,1,1,1,1,1,1,
78,78,78,78,78,78,78,78,85,97,98,98,127,85,85,85,78,78,78,78,78,78,78,78,78,126,128,1,1,129,123,124,1,1,1,1,1,1,1,1,
85,97,98,98,98,98,127,85,31,90,78,78,86,31,31,31,78,78,78,78,78,83,83,78,78,125,137,139,139,138,123,124,1,1,1,1,1,1,1,1,
31,90,78,78,78,78,86,31,31,90,78,78,86,31,31,31,85,85,97,98,127,31,31,85,133,134,135,1,1,129,123,124,1,1,1,1,1,1,1,1,
31,69,1,1,1,1,91,31,31,69,1,1,91,31,31,31,31,31,69,1,91,31,31,31,69,125,136,1,1,129,123,124,1,1,1,1,1,1,1,1
</data>
 </layer>
</map>
