<?xml version="1.0" encoding="UTF-8"?>
<map version="1.10" tiledversion="1.10.2" orientation="orthogonal" renderorder="right-down" width="80" height="8" tilewidth="32" tileheight="32" infinite="0" nextlayerid="2" nextobjectid="1">
 <tileset firstgid="1" name="Tiles" tilewidth="32" tileheight="32" tilecount="256" columns="16">
  <image source="level01_03.png" width="512" height="512"/>
 </tileset>
 <layer id="1" name="Layer1" width="80" height="8">
  <data encoding="csv">
74,3,12,14,17,11,88,87,79,119,78,81,81,77,112,79,74,3,12,14,17,11,82,79,74,3,12,14,17,11,82,110,77,107,29,2,34,35,2,31,88,77,78,81,81,81,110,132,113,74,3,12,14,17,11,82,77,110,112,77,114,115,55,49,154,154,154,154,154,154,154,154,154,154,154,154,154,154,154,154,
74,4,13,15,18,10,90,89,118,116,21,22,23,120,122,79,74,4,13,15,18,10,82,112,74,4,13,15,18,10,82,109,75,108,143,26,2,2,27,142,109,75,138,36,37,139,130,132,129,74,4,13,15,18,10,82,75,111,113,81,109,116,47,46,1,1,124,157,156,157,157,156,156,156,157,156,156,156,74,55,
86,5,2,2,2,9,88,77,117,19,2,2,2,20,121,79,74,5,2,2,2,9,125,79,86,5,2,2,2,9,50,50,82,109,86,148,38,39,41,50,50,141,24,2,2,25,40,131,130,74,5,2,2,2,9,50,50,50,50,50,50,50,135,45,58,82,123,79,123,122,122,127,77,77,129,77,132,123,74,55,
76,83,6,7,8,84,76,76,83,3,12,14,17,11,82,89,123,124,6,7,8,84,76,76,76,83,6,7,150,62,59,59,1,50,50,76,83,51,51,59,59,28,2,32,33,2,30,88,131,123,124,6,7,8,1,59,59,59,59,66,65,65,65,65,58,82,77,112,129,80,129,115,115,115,122,115,118,122,74,55,
51,51,51,51,51,51,51,51,51,4,13,15,18,10,84,76,76,83,21,22,23,1,51,51,51,51,51,51,61,1,43,36,37,149,59,51,51,52,58,133,123,29,2,34,35,2,31,75,73,73,83,21,22,23,120,73,136,36,37,44,69,68,49,56,58,82,76,120,122,75,75,75,76,76,120,75,130,129,74,55,
52,49,52,53,49,52,49,67,137,5,2,2,2,9,51,51,51,19,2,2,2,20,69,68,57,56,49,60,85,141,24,2,2,25,40,63,52,49,54,134,124,143,26,2,2,27,151,50,50,50,19,2,2,2,20,141,24,2,2,25,40,63,49,49,49,65,64,84,76,83,155,155,65,65,155,155,82,75,74,55,
49,52,49,53,52,49,49,54,145,152,6,7,8,153,69,71,48,3,12,14,17,11,1,55,56,49,58,146,145,28,2,32,33,2,30,1,55,58,146,145,145,145,42,38,39,41,66,65,65,64,3,12,14,17,11,28,2,32,33,2,30,70,52,49,49,60,1,59,59,59,69,68,49,49,67,48,155,155,155,55,
49,49,49,53,49,52,49,54,147,147,147,147,147,147,1,72,1,4,13,15,18,10,1,55,49,49,58,147,147,29,2,34,35,2,31,1,55,58,147,147,147,147,147,147,147,147,1,55,58,1,4,13,15,18,10,29,2,34,35,2,31,70,49,49,49,54,1,1,1,1,1,69,49,49,54,1,1,70,49,49

</data>
 </layer>
</map>
