<?xml version="1.0" encoding="UTF-8"?>
<map version="1.10" tiledversion="1.10.2" orientation="orthogonal" renderorder="right-down" width="8" height="16" tilewidth="32" tileheight="32" infinite="0" nextlayerid="2" nextobjectid="1">
 <tileset firstgid="1" name="Tiles" tilewidth="32" tileheight="32" tilecount="256" columns="16">
  <image source="level05_03.png" width="512" height="512"/>
 </tileset>
 <layer id="1" name="Layer1" width="8" height="16">
  <data encoding="csv">
  38,39,38,40,38,38,38,39,
41,42,38,40,40,39,51,52,
43,44,38,40,38,40,53,54,
45,46,39,40,39,39,55,56,
47,48,39,39,39,39,57,58,
49,50,61,62,62,61,59,60,
28,29,30,31,32,33,34,35,
36,19,1,26,27,1,18,37,

  14,13,16,11,12,17,13,15,
3,3,18,11,12,19,3,3,
13,15,18,11,12,19,14,13,
3,3,18,11,12,19,3,3,
2,2,20,24,25,21,2,2,
2,9,5,11,12,6,10,2,
4,5,7,22,23,8,6,4,
3,5,5,9,10,6,6,3

  </data>
 </layer>
</map>
