<?xml version="1.0" encoding="UTF-8"?>
<map version="1.10" tiledversion="1.10.2" orientation="orthogonal" renderorder="right-down" width="96" height="16" tilewidth="32" tileheight="32" infinite="0" nextlayerid="2" nextobjectid="1">
 <tileset firstgid="1" name="Tiles" tilewidth="32" tileheight="32" tilecount="256" columns="16">
  <image source="level02_01.png" width="512" height="512"/>
 </tileset>
 <layer id="1" name="Layer1" width="96" height="16">
  <data encoding="csv">
  1,1,1,1,1,1,1,1,1,1,1,1,1,1,1,1,1,1,1,1,1,1,1,1,1,1,1,1,1,1,1,1,1,1,1,1,1,1,1,1,31,69,1,4,5,1,1,4,5,1,31,30,78,78,78,78,78,86,31,31,30,78,78,31,69,1,1,1,1,1,1,1,1,1,1,1,1,103,104,105,104,105,31,31,52,2,102,31,109,110,110,110,110,110,110,110,
1,1,1,1,1,1,1,1,1,1,1,1,1,1,1,1,1,1,1,1,1,1,1,1,1,1,1,1,1,1,1,1,1,1,1,1,1,1,1,1,31,69,1,24,7,8,8,6,23,1,31,36,22,22,22,22,22,92,22,31,36,22,22,22,93,22,22,22,22,22,94,1,95,96,96,96,99,103,104,105,104,105,31,31,109,110,121,31,111,112,111,112,111,112,111,112,
1,1,1,1,1,1,1,1,1,1,1,1,1,1,1,1,1,1,1,1,1,1,1,1,1,1,1,1,1,1,1,1,1,1,1,1,1,1,1,1,31,69,1,24,9,10,11,12,23,1,1,35,1,1,1,1,1,1,1,32,35,1,1,1,1,1,1,1,1,1,1,1,1,1,1,1,1,103,104,105,104,105,31,112,111,112,111,112,104,105,104,105,104,105,104,105,
1,1,1,1,1,1,1,1,1,1,1,1,1,1,1,1,1,1,1,1,1,1,1,1,1,1,1,1,1,1,1,1,1,1,1,1,1,1,1,1,31,64,51,65,66,66,76,77,79,80,80,80,80,81,34,77,79,80,80,80,80,81,34,85,1,1,95,96,96,96,96,96,96,96,99,100,100,106,107,108,104,105,111,105,104,105,104,105,104,105,104,105,104,105,104,105,
1,1,1,1,1,1,1,1,1,1,1,1,1,1,1,1,1,1,1,1,1,1,1,1,1,1,1,1,1,1,1,1,1,1,1,1,1,1,1,1,31,69,1,44,45,46,62,31,82,78,78,78,78,78,86,31,82,83,78,78,78,78,86,31,85,80,80,80,80,80,80,80,80,80,80,80,80,151,40,41,113,113,113,113,113,114,115,116,113,113,113,114,115,115,115,115,
1,1,1,1,1,1,1,1,1,1,1,1,1,1,1,1,1,1,1,1,1,1,1,1,1,1,1,1,1,1,1,1,1,1,1,1,1,1,1,1,31,70,71,72,73,74,75,31,82,83,78,78,78,83,87,31,82,31,83,88,89,85,85,31,31,83,78,78,78,78,78,78,78,78,78,78,78,52,2,101,117,117,117,117,117,118,40,120,153,117,117,118,40,40,40,40,
1,1,1,1,1,1,1,1,1,1,1,1,1,1,1,1,1,1,1,1,1,1,1,1,1,1,1,1,1,1,1,1,1,1,1,1,1,1,1,1,31,152,22,59,60,46,62,31,82,31,83,85,83,31,31,31,82,31,31,90,86,31,31,31,31,31,97,98,98,98,98,98,98,98,98,98,98,84,2,102,40,40,40,40,40,119,2,102,122,40,40,119,2,2,2,2,
1,1,1,1,1,1,1,1,1,1,1,1,1,1,1,1,1,1,1,1,1,1,1,1,1,1,1,1,1,1,1,1,1,1,1,1,1,1,1,1,31,69,1,24,61,55,63,31,82,31,31,31,31,31,31,31,82,31,31,69,91,31,31,31,31,31,69,1,1,1,1,1,1,1,1,1,1,52,2,102,2,2,2,2,2,2,2,102,2,2,2,2,2,2,2,2,

2,2,2,2,2,2,2,2,2,30,31,30,2,2,2,2,2,2,2,30,31,31,31,36,3,22,3,22,3,22,3,22,3,22,3,22,3,22,3,31,31,64,51,65,66,66,67,68,1,1,1,1,1,1,1,1,1,1,1,1,1,1,1,1,1,1,1,1,1,1,1,1,1,1,1,1,1,1,1,1,1,1,1,1,1,1,1,1,1,1,1,1,1,1,1,1,
3,22,3,22,3,22,3,22,3,33,31,36,3,22,3,22,3,22,3,33,31,31,31,37,44,45,46,46,47,48,1,1,44,45,46,46,46,47,48,1,31,69,1,44,45,46,62,2,1,1,1,1,1,1,1,1,1,1,1,1,1,1,1,1,1,1,1,1,1,1,1,1,1,1,1,1,1,1,1,1,1,1,1,1,1,1,1,1,1,1,1,1,1,1,1,1,
4,5,1,1,4,5,1,1,4,5,31,35,4,5,1,1,4,5,1,1,31,31,1,1,24,49,28,28,50,23,1,1,24,49,28,28,28,50,23,1,31,70,71,72,73,74,75,2,1,1,1,1,1,1,1,1,1,1,1,1,1,1,1,1,1,1,1,1,1,1,1,1,1,1,1,1,1,1,1,1,1,1,1,1,1,1,1,1,1,1,1,1,1,1,1,1,
6,7,8,8,6,7,8,8,6,23,32,1,24,7,8,25,38,39,1,1,32,32,1,1,24,49,28,28,50,23,51,26,57,9,55,56,55,12,23,1,32,58,22,59,60,46,62,2,1,1,1,1,1,1,1,1,1,1,1,1,1,1,1,1,1,1,1,1,1,1,1,1,1,1,1,1,1,1,1,1,1,1,1,1,1,1,1,1,1,1,1,1,1,1,1,1,
13,9,10,11,12,9,10,11,12,23,1,1,24,26,15,27,40,41,1,1,1,1,1,43,54,9,10,11,12,23,1,52,42,15,16,16,16,15,57,1,1,1,1,24,61,55,63,2,1,1,1,1,1,1,1,1,1,1,1,1,1,1,1,1,1,1,1,1,1,1,1,1,1,1,1,1,1,1,1,1,1,1,1,1,1,1,1,1,1,1,1,1,1,1,1,1,
14,15,16,16,17,18,16,16,15,15,16,16,15,53,2,29,2,42,15,16,16,15,15,27,14,15,16,16,15,15,15,53,29,2,1,1,1,29,42,15,16,16,16,15,15,15,17,2,1,1,1,1,1,1,1,1,1,1,1,1,1,1,1,1,1,1,1,1,1,1,1,1,1,1,1,1,1,1,1,1,1,1,1,1,1,1,1,1,1,1,1,1,1,1,1,1,
19,19,20,20,19,19,20,20,19,19,20,20,19,19,19,19,19,19,19,20,20,19,19,19,19,19,20,20,19,19,19,19,19,19,20,20,20,19,19,19,20,20,20,19,19,19,19,19,1,1,1,1,1,1,1,1,1,1,1,1,1,1,1,1,1,1,1,1,1,1,1,1,1,1,1,1,1,1,1,1,1,1,1,1,1,1,1,1,1,1,1,1,1,1,1,1,
21,21,21,21,21,21,21,21,21,21,21,21,21,21,21,21,21,21,21,21,21,21,21,21,21,21,21,21,21,21,21,21,21,21,21,21,21,21,21,21,21,21,21,21,21,21,21,21,1,1,1,1,1,1,1,1,1,1,1,1,1,1,1,1,1,1,1,1,1,1,1,1,1,1,1,1,1,1,1,1,1,1,1,1,1,1,1,1,1,1,1,1,1,1,1,1
</data>
 </layer>
</map>
