<?xml version="1.0" encoding="UTF-8"?>
<map version="1.10" tiledversion="1.10.2" orientation="orthogonal" renderorder="right-down" width="96" height="24" tilewidth="32" tileheight="32" infinite="0" nextlayerid="2" nextobjectid="1">
 <tileset firstgid="1" name="Tiles" tilewidth="32" tileheight="32" tilecount="256" columns="16">
  <image source="level04_02.png" width="512" height="512"/>
 </tileset>
 <layer id="1" name="Layer1" width="96" height="24">
  <data encoding="csv">
  1,1,1,1,1,1,1,1,1,1,1,1,1,1,1,1,1,1,1,1,1,1,1,1,1,1,1,1,1,1,1,1,1,1,1,1,1,1,1,1,1,1,1,1,1,1,1,1,1,1,1,1,1,1,1,1,1,1,1,1,1,1,1,1,1,1,1,1,1,1,1,1,1,1,1,1,1,1,1,1,1,1,1,1,1,1,1,1,43,2,54,80,81,82,82,54,
1,1,1,1,1,1,1,1,1,1,1,1,1,1,1,1,1,1,1,1,1,1,1,1,1,1,1,1,1,1,1,1,1,1,1,1,1,1,1,1,1,1,1,1,1,1,1,1,1,1,1,1,1,1,1,1,1,1,1,1,1,1,1,1,1,1,1,1,1,1,1,1,1,1,1,1,1,1,1,1,1,1,1,1,1,1,1,1,2,2,54,80,81,82,82,54,
1,1,1,1,1,1,1,1,1,1,1,1,1,1,1,1,1,1,1,1,1,1,1,1,1,1,1,1,1,1,1,1,1,1,1,1,1,1,1,1,1,1,1,1,1,1,1,1,1,1,1,1,1,1,1,1,1,1,1,1,1,1,1,1,1,1,1,1,1,1,1,1,1,1,1,1,1,1,1,1,1,1,1,1,1,1,1,1,43,2,54,80,81,76,76,54,
1,1,1,1,1,1,1,1,1,1,1,1,1,1,1,1,1,1,1,1,1,1,1,1,1,1,1,1,1,1,1,1,1,1,1,1,1,1,1,1,1,1,1,1,1,1,1,1,1,1,1,1,1,1,1,1,1,1,1,1,1,1,1,1,1,1,1,1,1,1,1,1,1,1,1,1,1,1,1,1,1,1,1,1,1,1,1,1,2,2,54,80,81,82,82,79,
1,1,1,1,1,1,1,1,1,1,1,1,1,1,1,1,1,1,1,1,1,1,1,1,1,1,1,1,1,1,1,1,1,1,1,1,1,1,1,1,1,1,1,1,1,1,1,1,1,1,1,1,1,1,1,1,1,1,1,1,1,1,1,1,1,1,1,1,1,1,1,1,1,1,1,1,1,1,1,1,1,1,1,1,1,1,1,1,43,2,3,80,81,76,76,76,
1,1,1,1,1,1,1,1,1,1,1,1,1,1,1,1,1,1,1,1,1,1,1,1,1,1,1,1,1,1,1,1,1,1,1,1,1,1,1,1,1,1,1,1,1,1,1,1,1,1,1,1,1,1,1,1,1,1,1,1,1,1,1,1,1,1,1,1,1,1,1,1,1,1,1,1,1,1,1,1,1,1,1,1,1,1,1,1,2,2,28,80,81,28,60,62,
1,1,1,1,1,1,1,1,1,1,1,1,1,1,1,1,1,1,1,1,1,1,1,1,1,1,1,1,1,1,1,1,1,1,1,1,1,1,1,1,1,1,1,1,1,1,1,1,1,1,1,1,1,1,1,1,1,1,1,1,1,1,1,1,1,1,1,1,1,1,1,1,1,1,1,1,1,1,1,1,1,1,1,1,1,1,1,1,43,2,54,80,81,54,2,43,
1,1,1,1,1,1,1,1,1,1,1,1,1,1,1,1,1,1,1,1,1,1,1,1,1,1,1,1,1,1,1,1,1,1,1,1,1,1,1,1,1,1,1,1,1,1,1,1,1,1,1,1,1,1,1,1,1,1,1,1,1,1,1,1,1,1,1,1,1,1,1,1,1,1,1,1,1,1,1,1,1,1,1,1,1,1,1,1,2,2,54,80,81,54,2,2,

  54,2,2,54,2,2,5,6,5,6,2,2,2,54,2,2,2,54,34,39,18,26,46,46,46,34,40,42,54,46,46,5,1,1,1,1,1,1,1,1,1,1,1,1,1,1,1,1,1,1,1,1,1,1,1,1,1,1,1,1,1,1,1,1,1,1,1,1,1,1,1,1,1,1,1,1,1,1,1,1,1,1,1,1,1,1,1,1,43,2,54,80,81,54,2,43,
54,2,2,54,2,2,5,6,5,6,2,2,2,54,2,2,2,54,35,40,41,42,47,47,47,35,18,26,3,47,47,5,1,1,1,1,1,1,1,1,1,1,1,1,1,1,1,1,1,1,1,1,1,1,1,1,1,1,1,1,1,1,1,1,1,1,1,1,1,1,1,1,1,1,1,1,1,1,1,1,1,1,1,1,1,1,1,1,2,2,54,80,81,54,2,2,
3,4,4,3,4,4,7,8,5,6,4,4,4,54,4,4,4,54,36,18,44,43,29,30,1,36,40,42,1,1,50,5,1,1,1,1,1,1,1,1,1,1,1,1,1,1,1,1,1,1,1,1,1,1,1,1,1,1,1,1,1,1,1,1,1,1,1,1,1,1,1,1,1,1,1,1,1,1,1,1,1,1,1,1,1,1,1,1,43,2,54,80,81,54,2,43,
13,15,14,13,15,14,13,13,5,6,22,14,21,54,22,14,14,54,36,18,18,45,5,6,28,31,32,31,32,1,1,5,1,1,1,1,1,1,1,1,1,1,1,1,1,1,1,1,1,1,1,1,1,1,1,1,1,1,1,1,1,1,1,1,1,1,1,1,1,1,1,1,1,1,1,1,1,1,1,1,1,1,1,1,1,1,1,1,2,2,54,80,81,54,4,4,
16,17,18,19,18,18,19,19,7,8,23,24,25,3,23,24,25,3,23,24,25,23,5,6,54,5,6,5,6,1,1,5,1,1,1,1,1,1,1,1,1,1,1,1,1,1,1,1,1,1,1,1,1,1,1,1,1,1,1,1,1,1,1,1,1,1,1,1,1,1,1,1,1,1,1,1,1,1,1,1,1,1,1,1,1,1,1,1,11,10,54,80,81,54,27,43,
5,6,9,11,11,10,19,19,20,21,26,27,18,20,26,27,18,20,26,27,39,28,5,6,54,7,8,7,8,37,37,5,1,1,1,1,1,1,1,1,1,1,1,1,1,1,1,1,1,1,1,1,1,1,1,1,1,1,1,1,1,1,1,1,1,1,1,1,1,1,1,1,1,1,1,1,1,1,1,1,1,1,1,1,1,1,1,1,12,6,54,80,81,54,41,20,
5,6,5,12,12,6,9,10,28,29,30,29,30,28,31,32,33,28,31,83,32,54,5,6,54,45,45,1,1,36,26,5,1,1,1,1,1,1,1,1,1,1,1,1,1,1,1,1,1,1,1,1,1,1,1,1,1,1,1,1,1,1,1,1,1,1,1,1,1,1,1,1,1,1,1,1,1,1,1,1,1,1,1,1,1,1,1,1,12,6,54,80,81,54,18,43,
5,6,5,12,12,6,5,6,54,5,6,5,6,54,5,6,54,54,5,12,6,54,5,6,54,37,37,24,57,58,58,5,1,1,1,1,1,1,1,1,1,1,1,1,1,1,1,1,1,1,1,1,1,1,1,1,1,1,1,1,1,1,1,1,1,1,1,1,1,1,1,1,1,1,1,1,1,1,1,1,1,1,1,1,1,1,1,1,12,6,54,80,81,54,40,20,

1,1,1,1,1,1,1,1,1,1,1,1,1,1,1,1,1,1,1,1,1,1,1,1,3,42,42,61,40,42,42,5,6,2,2,2,2,54,64,19,18,13,18,5,6,3,5,6,54,64,64,7,69,8,64,5,6,43,64,84,64,84,64,84,54,64,13,64,13,18,18,3,18,64,54,54,64,64,7,8,13,14,13,14,14,13,5,12,12,6,54,80,81,54,18,43,
1,1,1,1,1,1,1,1,1,1,1,1,1,1,1,1,1,1,1,1,1,1,1,1,32,57,57,58,59,23,24,5,6,2,2,2,2,54,64,19,41,19,40,5,6,27,7,8,54,64,64,13,14,13,64,5,6,84,64,20,64,20,64,20,54,64,19,64,19,41,40,61,40,64,54,85,64,64,13,14,19,40,19,41,40,19,5,12,12,6,54,80,81,54,41,20,
1,1,1,1,1,1,1,1,1,1,1,1,1,1,1,1,1,1,1,1,1,1,1,1,6,46,46,34,18,26,45,7,8,4,4,4,4,3,64,9,10,19,18,5,6,18,13,14,3,64,64,19,40,19,64,5,6,20,64,28,64,84,64,84,54,64,84,64,60,62,62,62,63,64,85,20,64,64,19,40,19,18,19,18,18,19,5,12,12,6,54,80,81,54,18,43,
1,1,1,1,1,1,1,1,1,1,1,1,1,1,1,1,1,1,1,1,1,1,1,1,6,23,52,53,24,58,57,57,14,22,27,27,27,13,64,5,6,19,41,5,6,40,19,41,20,64,64,60,62,63,64,7,8,43,64,54,64,20,64,20,54,64,20,64,13,14,21,9,10,64,20,28,64,64,84,28,74,75,74,75,75,74,38,77,77,78,79,80,81,54,40,20,
1,1,1,1,1,1,1,1,1,1,1,1,1,1,1,1,1,1,1,1,1,1,1,1,6,42,1,58,61,42,40,41,40,42,41,40,41,19,64,5,6,19,39,67,68,18,9,11,10,64,64,13,14,13,64,13,14,13,64,54,64,28,64,84,85,64,84,64,72,73,73,5,6,64,84,85,64,64,20,3,19,40,19,1,1,19,1,76,76,76,76,80,81,54,18,43,
1,1,1,1,1,1,1,1,1,1,1,1,1,1,1,1,1,1,1,1,1,1,1,1,6,33,25,23,52,53,25,25,25,23,24,18,65,66,64,5,6,28,48,48,48,48,5,12,6,64,64,19,40,19,64,70,48,70,64,54,64,85,64,20,20,64,20,64,20,14,21,5,6,64,20,20,64,64,9,11,10,75,74,75,75,74,9,11,11,10,28,80,81,54,41,20,
1,1,1,1,1,1,1,1,1,1,1,1,1,1,1,1,1,1,1,1,1,1,1,1,6,54,29,30,29,30,18,9,10,26,27,18,5,6,64,5,6,54,9,10,9,10,5,12,6,64,64,9,11,10,64,9,11,10,64,54,64,20,64,9,10,64,28,64,9,11,10,5,6,64,9,10,64,64,5,12,6,18,19,18,18,19,5,12,12,6,54,80,81,54,18,43,
1,1,1,1,1,1,1,1,1,1,1,1,1,1,1,1,1,1,1,1,1,1,1,1,6,54,5,6,5,6,18,5,6,26,18,18,5,6,64,5,6,54,5,6,5,6,5,12,6,64,64,7,69,8,64,5,12,6,64,54,64,28,64,5,6,64,54,64,5,12,6,5,6,64,5,6,64,64,5,12,6,18,19,18,18,19,5,12,12,6,54,80,81,54,18,20
</data>
 </layer>
</map>
