<?xml version="1.0" encoding="UTF-8"?>
<map version="1.10" tiledversion="1.10.2" orientation="orthogonal" renderorder="right-down" width="16" height="8" tilewidth="32" tileheight="32" infinite="0" nextlayerid="2" nextobjectid="1">
 <tileset firstgid="1" name="Tiles" tilewidth="32" tileheight="32" tilecount="256" columns="16">
  <image source="level02_03.png" width="512" height="512"/>
 </tileset>
 <layer id="1" name="Layer1" width="16" height="8">
  <data encoding="csv">
  1,1,1,1,1,1,1,1,1,1,1,1,1,1,1,1,
1,1,1,1,1,1,1,1,1,1,1,1,1,1,1,1,
1,1,1,1,1,1,1,1,1,1,1,8,9,10,11,1,
1,1,1,1,1,1,1,1,1,12,13,14,15,16,5,5,
1,1,1,1,1,1,1,1,1,17,18,19,4,4,4,4,
1,1,1,1,1,1,1,1,20,21,22,23,24,6,6,6,
3,3,3,3,3,3,3,3,3,3,3,25,26,7,7,7,
2,2,2,2,2,2,2,2,2,2,2,2,2,2,2,2
</data>
 </layer>
</map>
